X: 3804
T: Back to the Fireside
P: Robert E. Lyon
C:Andrew Lyon
R:Reel (8x32)
B:RSCDS 38-4
Z:Anselm Lingnau <anselm@strathspey.org>
M:C
L:1/8
K:D
A2|"D"D2FG A3d|"G"B2B2 "D"A4|"G"Bcd2 "D"A2F2|"Em"F2E2 "A7"AGFE|
   "D"DEFG A2Ad|"G"B2B2 "D"A4|"G"Bcd2 "A7"cde2|"D"f2"G"d2 "D"d2z2||
   "D"fedf "A"e2A2|"Bm"dcBd "A"A4|"G"BcdB "D"A2F2|"Em"GFED "A7"EGFE|
   "D"DEFG A2Ad|"G"B2B2 "D"A4|"G"BcdB "A7"cdeg|"D"f2"G"d2 "D"d2z2|]
%%center Book38/3804-Back_to_the_Fireside-AL.abc

%%sep 1 1 500
%%sep 1 1 500

